storage/app/icons/phosphoricons/light/circles-three-plus-light.svg

<svg xmlns="http://www.w3.org/2000/svg" fill="currentColor" viewBox="0 0 256 256"><path d="M80 42a38 38 0 1 0 38 38 38 38 0 0 0-38-38m0 64a26 26 0 1 1 26-26 26 26 0 0 1-26 26m96 12a38 38 0 1 0-38-38 38 38 0 0 0 38 38m0-64a26 26 0 1 1-26 26 26 26 0 0 1 26-26m-96 84a38 38 0 1 0 38 38 38 38 0 0 0-38-38m0 64a26 26 0 1 1 26-26 26 26 0 0 1-26 26m134-26a6 6 0 0 1-6 6h-26v26a6 6 0 0 1-12 0v-26h-26a6 6 0 0 1 0-12h26v-26a6 6 0 0 1 12 0v26h26a6 6 0 0 1 6 6"/></svg>

<svg xmlns="http://www.w3.org/2000/svg" viewBox="0 0 256 256" fill="currentColor"><path d="M80,42a38,38,0,1,0,38,38A38,38,0,0,0,80,42Zm0,64a26,26,0,1,1,26-26A26,26,0,0,1,80,106Zm96,12a38,38,0,1,0-38-38A38,38,0,0,0,176,118Zm0-64a26,26,0,1,1-26,26A26,26,0,0,1,176,54ZM80,138a38,38,0,1,0,38,38A38,38,0,0,0,80,138Zm0,64a26,26,0,1,1,26-26A26,26,0,0,1,80,202Zm134-26a6,6,0,0,1-6,6H182v26a6,6,0,0,1-12,0V182H144a6,6,0,0,1,0-12h26V144a6,6,0,0,1,12,0v26h26A6,6,0,0,1,214,176Z"/></svg>
